teeny/solid/book.svg

<svg width="15" height="15" viewBox="0 0 15 15" fill="none" xmlns="http://www.w3.org/2000/svg">
<path d="M1.5 0C1.22386 0 1 0.223858 1 0.5V13.5C1 13.7761 1.22386 14 1.5 14H3V0H1.5Z" fill="black"/>
<path fill-rule="evenodd" clip-rule="evenodd" d="M4 15H5V14H11.5C12.8807 14 14 12.8807 14 11.5V2.5C14 1.11929 12.8807 0 11.5 0H4V15ZM11 5H7V4H11V5Z" fill="black"/>
</svg>

<svg viewBox="0 0 15 15" xmlns="http://www.w3.org/2000/svg"><g><path d="M1.5 0c-.28 0-.5.22-.5.5v13c0 .27.22.5.5.5H3V0H1.5Z"/><path fill-rule="evenodd" d="M4 15h1v-1h6.5c1.38 0 2.5-1.12 2.5-2.5v-9C14 1.11 12.88 0 11.5 0H4v15Zm7-10H7V4h4v1Z"/></g></svg>
